X:349
T:Travers' Reel
R:reel
Z:id:hn-reel-349
M:C|
K:G
ge|:dB~B2 ABGB|dBGB AGED|GABd gaba|gedB A2ge|
dB~B2 ABGB|dBGB AGED|GABd gaba|1 gedB G2ge:|2 gedB G3A||
|:Bd~d2 edBd|gBfB efgd|Bdef geaf|gedB ~A3c|
Bd~d2 edBd|gBfB efgd|Bdef geaf|1 gedB G3A:|2 gedB G2||
P:variations
ge|:dBBA B2GB|dBGB AGED|~G2Bd gaba|gedB A2ge|
dBBA ~B3c|d2BG AGED|GABd gaba|1 gedB G2ge:|2 gedB G3A||
|: Bd~d2 ed~d2|gd~d2 edBA|Bd~d2 edef|gedB A3c|
Bd~d2 ed~d2|gd~d2 edBA|Bdde gaba|1 gedB G3A:|2 gedB G2||

